X: 43
T:Ranger's Hornpipe,The. WCa.43
M:C|
Q:160
C:"Wm Calvert's Book"
S:Wm. Calvert MS, 1812, Leyburn, Yorks.
R:hornpipe
O:England
A:North Yorkshire
Z:vmp.Chris Partington, May 2003
K:D
(FG)|ABAFA2de|edefd2Bc|dedB ABAF|G2E2E2(FG)|!
ABAFA2de|edefd2Bc|dedc A>BA>G|F2D2D2::!
"qu"g2|fefg afdg|fefg afdg|g2bgf2af|g2e2e2(FG)|!
ABAFA2de|fdefd2Bc|dedc ABAG|F2D2D2:||
